remix/Device/mouse-line.svg

<svg viewBox="0 0 24 24" fill="currentColor" xmlns="http://www.w3.org/2000/svg"><path d="M11.1411 4C9.5587 4 8.75361 4.16876 8.01266 4.56502C7.38342 4.90155 6.90155 5.38342 6.56502 6.01266C6.16876 6.75361 6 7.5587 6 9.14111V14.8589C6 16.4413 6.16876 17.2464 6.56502 17.9873C6.90155 18.6166 7.38342 19.0985 8.01266 19.435C8.75361 19.8312 9.5587 20 11.1411 20H12.8589C14.4413 20 15.2464 19.8312 15.9873 19.435C16.6166 19.0985 17.0985 18.6166 17.435 17.9873C17.8312 17.2464 18 16.4413 18 14.8589V9.14111C18 7.5587 17.8312 6.75361 17.435 6.01266C17.0985 5.38342 16.6166 4.90155 15.9873 4.56502C15.2464 4.16876 14.4413 4 12.8589 4H11.1411ZM11.1411 2H12.8589C14.8728 2 15.9528 2.27848 16.9305 2.8014C17.9083 3.32432 18.6757 4.09169 19.1986 5.06946C19.7215 6.04724 20 7.12721 20 9.14111V14.8589C20 16.8728 19.7215 17.9528 19.1986 18.9305C18.6757 19.9083 17.9083 20.6757 16.9305 21.1986C15.9528 21.7215 14.8728 22 12.8589 22H11.1411C9.12721 22 8.04724 21.7215 7.06946 21.1986C6.09169 20.6757 5.32432 19.9083 4.8014 18.9305C4.27848 17.9528 4 16.8728 4 14.8589V9.14111C4 7.12721 4.27848 6.04724 4.8014 5.06946C5.32432 4.09169 6.09169 3.32432 7.06946 2.8014C8.04724 2.27848 9.12721 2 11.1411 2ZM11 6H13V11H11V6Z"/></svg>

<svg viewBox="0 0 24 24" xmlns="http://www.w3.org/2000/svg"><path fill="none" d="M0 0h24v24H0Z"/><path d="M11.14 4c-1.59 0-2.39.16-3.128.56v-.001c-.62.32-1.13.83-1.45 1.44 -.4.74-.57 1.54-.57 3.12v5.718c0 1.58.16 2.38.56 3.12 .33.63.81 1.11 1.44 1.44 .74.39 1.54.56 3.128.56h1.718c1.58 0 2.38-.17 3.128-.57v0c.61-.33 1.12-.84 1.44-1.45 .39-.74.56-1.55.56-3.128V9.08c0-1.59-.17-2.39-.57-3.128v0c-.33-.62-.84-1.13-1.45-1.45 -.74-.4-1.55-.57-3.13-.57h-1.72Zm0-2h1.718c2.01 0 3.09.278 4.07.8v-.001c.96.51 1.75 1.3 2.26 2.26 .52.97.8 2.058.8 4.07v5.718c0 2.01-.28 3.09-.81 4.07v0c-.52.96-1.31 1.75-2.27 2.26 -.98.52-2.058.8-4.08.8H11.1c-2.02 0-3.1-.28-4.072-.81l-.001 0c-.97-.52-1.76-1.31-2.27-2.27 -.53-.98-.8-2.058-.8-4.08V9.09c0-2.02.27-3.1.8-4.072l-.001 0c.51-.97 1.3-1.76 2.269-2.27 .97-.53 2.05-.81 4.07-.81Zm-.15 4h2v5h-2V6Z"/></svg>
